X: 2
T: John Donald of Coullie
M: 4/4
L: 1/8
R: barndance
K: G Major
D2 |
GGGG F2 F2 | E2 E2 D4 | BGFG c2 A2 | E4- E4 |
AAAA G4 | F2 F2 E4 | DDDD c2 A2 | B2 D2 E3 F |
GGGG F2 F2 | EEEE D2 D2 | BGFG g2 f2 | e4- e4 | 
AAAA e2 e2 | BBBB d4 | EEEE F2 F2 | G4- G2 ||
D2 |
BBBB G2 B2 | e2 d2 B4 | gdBG FGAB | c2 e2 E3 e |
AAAA ^G3 A | f2 e2 c3 A | eeee c2 A2 | G2 g2 DGBd |
g2 G2 BGAB | E2 G2 D4 | BGFG AGFG | e4- e2 g2 |
ffff e2 e2 | dddd c4 | EEEE B2 A2 | G4- G2 |]
